theme/white/state-warning.svg

<svg width="16" height="16" version="1.1" viewBox="0 0 4.2333 4.2333" xmlns="http://www.w3.org/2000/svg"><path transform="scale(.26458)" d="m8 1a7 7 0 0 0-7 7 7 7 0 0 0 7 7 7 7 0 0 0 7-7 7 7 0 0 0-7-7zm0 1a6 6 0 0 1 6 6 6 6 0 0 1-6 6 6 6 0 0 1-6-6 6 6 0 0 1 6-6zm-0.013672 2.2598a0.75007 0.75007 0 0 0-0.73633 0.76758v3.7285a0.75007 0.75007 0 1 0 1.498 0v-3.7285a0.75007 0.75007 0 0 0-0.76172-0.76758zm-0.0039062 5.8359a0.93749 0.93749 0 0 0-0.9375 0.9375 0.93749 0.93749 0 0 0 0.9375 0.9375 0.93749 0.93749 0 0 0 0.9375-0.9375 0.93749 0.93749 0 0 0-0.9375-0.9375z" fill="#fff" stroke-width=".82894"/></svg>

<?xml version="1.0" encoding="UTF-8" standalone="no"?>
<!DOCTYPE svg PUBLIC "-//W3C//DTD SVG 1.1//EN" "http://www.w3.org/Graphics/SVG/1.1/DTD/svg11.dtd">
<svg width="100%" height="100%" viewBox="0 0 16 16"
    xmlns="http://www.w3.org/2000/svg" version="1.1">
    <path d="M8,1C4.16,1 1,4.16 1,8C1,11.84 4.16,15 8,15C11.84,15 15,11.84 15,8C15,4.16 11.84,1 8,1ZM8,2C11.291,2 14,4.708 14,8C14,11.291 11.291,14 8,14C4.708,14 2,11.291 2,8C2,4.708 4.708,2 8,2ZM7.986,4.26C7.58,4.267 7.25,4.603 7.25,5.01C7.25,5.016 7.25,5.021 7.25,5.027L7.25,8.756C7.249,8.769 7.249,8.783 7.249,8.796C7.249,9.207 7.587,9.546 7.999,9.546C8.41,9.546 8.749,9.207 8.749,8.796C8.749,8.783 8.749,8.769 8.748,8.756L8.748,5.027C8.748,5.021 8.748,5.016 8.748,5.01C8.748,4.598 8.41,4.26 7.998,4.26C7.994,4.26 7.99,4.26 7.986,4.26L7.986,4.26ZM7.982,10.096L7.982,10.096C7.468,10.096 7.045,10.519 7.045,11.033L7.045,11.033C7.045,11.547 7.468,11.971 7.982,11.971L7.982,11.971C8.497,11.971 8.92,11.547 8.92,11.033L8.92,11.033C8.92,10.519 8.497,10.096 7.982,10.096Z" style="fill:white;fill-rule:nonzero;"/>
</svg>
